!!!OTL@@FUR: Ciribiribin
!!!OTL@IT: Ciribiribin
!!!OTL@EN: Chi-ri-bi-ri-bin
**kern
*clefG2
*k[b-]
*F:
*M2/4
*MM140
*>[A,B,C,B,D]
*>A
16cc
16cc
16cc
16cc
=1
8cc
8a
8dd
8cc
=2
8b-
8g
16dd
16dd
16dd
16dd
=3
8dd
8b-
8ee
8dd
=4
8cc
8a
16cc
16cc
16cc
16cc
=5
8cc
8a
8dd
8cc
=6
8b-
8g
16ee
16ee
16ee
16ee
=7
8ee
8dd
8cc
8b-
=8
16a
16r
8a
8dd
8cc
=9!|:
*>B
8b-
8cc
[4ee
=10
8ee]
8dd
8cc
8b-
=11
8a
8b-
[4cc
=12
8cc]
8a
8dd
8cc
=13
8b-
8cc
[4ee
=14
8ee]
8dd
8cc
8b-
=15||
*>C
8a
8a
8dd
8cc
=16!|:
*>D
[2a
=17
8a]
8r
4r
==
*-
!!!ARE: Friuli
!!!ENC: Kelly Leistikow
!!!END: 2002/03/07
!!!ref: @{OTL@EN}
